logos/tuple.svg

<?xml version="1.0" encoding="UTF-8"?>
<svg width="512px" height="191px" viewBox="0 0 512 191" version="1.1" xmlns="http://www.w3.org/2000/svg" xmlns:xlink="http://www.w3.org/1999/xlink" preserveAspectRatio="xMidYMid">
    <title>Tuple</title>
    <g>
        <path d="M209.622505,80.3675092 L209.622505,131.930248 L231.354348,131.930248 L231.354348,80.3675092 L248.578575,80.3675092 L248.578575,63.8029337 L192.471572,63.8029337 L192.471572,80.3675092 L209.622505,80.3675092 L209.622505,80.3675092 Z M259.46282,103.821775 C259.46282,123.281487 270.718774,133.176256 290.613018,133.176256 L290.649665,133.176256 C309.706256,133.176256 321.909804,124.124375 321.909804,103.638539 L321.909804,63.8029337 L300.183196,63.8029337 L300.183196,102.868946 C300.183196,111.810885 298.272302,116.20856 290.6549,116.20856 C282.917087,116.20856 281.011428,111.810885 281.011428,102.978888 L281.011428,63.8029337 L259.46282,63.8029337 L259.46282,103.821775 L259.46282,103.821775 Z M364.164131,63.8029337 C383.807079,63.8029337 392.199309,72.5982835 392.199309,87.1472581 L392.199309,87.513731 C392.199309,101.73288 382.744307,109.721989 365.11696,109.721989 L358.520448,109.721989 L358.520448,131.930248 L337.008488,131.930248 L337.008488,63.8029337 L364.164131,63.8029337 Z M363.138007,79.9277417 L358.557095,79.9277417 L358.557095,95.2463094 L363.028065,95.2463094 C368.745042,95.2463094 371.713473,92.680999 371.713473,87.6236728 L371.713473,87.6236728 L371.713473,87.2571999 C371.713473,82.0166373 368.78169,79.9277417 363.138007,79.9277417 L363.138007,79.9277417 Z M403.41338,131.930248 L403.41338,63.8029337 L425.035281,63.8029337 L425.035281,115.25573 L449.850733,115.25573 L449.850733,131.930248 L403.41338,131.930248 L403.41338,131.930248 Z M462.049045,63.8029337 L462.049045,131.930248 L511.999303,131.930248 L511.999303,115.365672 L483.597652,115.365672 L483.597652,105.141078 L504.926376,105.141078 L504.926376,90.0057468 L483.597652,90.0057468 L483.597652,80.3675092 L510.460117,80.3675092 L510.460117,63.8029337 L462.049045,63.8029337 L462.049045,63.8029337 Z" fill="#1F2E41"></path>
        <polygon fill="#BFC6F1" points="29.3178328 65.9651238 117.271331 36.647291 117.271331 190.565913 29.3178328 161.248081"></polygon>
        <polygon fill="#4652AF" points="0 29.3178328 87.9534985 0 87.9534985 153.918622 0 124.600789"></polygon>
    </g>
</svg>

<svg preserveAspectRatio="xMidYMid" viewBox="0 0 512 191" xmlns="http://www.w3.org/2000/svg">
  <path fill="#1F2E41" d="M209.623 80.368v51.562h21.731V80.368h17.225V63.803h-56.107v16.565h17.15Zm49.84 23.454c0 19.46 11.256 29.354 31.15 29.354h.037c19.056 0 31.26-9.052 31.26-29.537V63.803h-21.727v39.066c0 8.942-1.91 13.34-9.528 13.34-7.738 0-9.644-4.398-9.644-13.23V63.803h-21.548v40.019Zm104.701-40.02c19.643 0 28.035 8.796 28.035 23.345v.367c0 14.219-9.455 22.208-27.082 22.208h-6.597v22.208h-21.512V63.803h27.156Zm-1.026 16.126h-4.58v15.318h4.47c5.717 0 8.685-2.565 8.685-7.622v-.367c0-5.24-2.931-7.33-8.575-7.33Zm40.275 52.002V63.803h21.622v51.453h24.816v16.674h-46.438Zm58.636-68.127v68.127h49.95v-16.564h-28.401V105.14h21.328V90.006h-21.328v-9.638h26.862V63.803h-48.41Z"/>
  <path fill="#BFC6F1" d="m29.318 65.965 87.953-29.318v153.919l-87.953-29.318z"/>
  <path fill="#4652AF" d="M0 29.318 87.953 0v153.919L0 124.6z"/>
</svg>
